src/assets/svg/icons/fa/nuevos/classic/duotone/bezier-curve classic duotone.svg

<svg xmlns="http://www.w3.org/2000/svg" viewBox="0 0 640 512"><!--! Font Awesome Pro 6.4.0 by @fontawesome - https://fontawesome.com License - https://fontawesome.com/license (Commercial License) Copyright 2023 Fonticons, Inc. --><defs><style>.fa-secondary{opacity:.4}</style></defs><path class="fa-primary" d="M296 136h48V88H296v48zM240 80c0-26.5 21.5-48 48-48h64c26.5 0 48 21.5 48 48v64c0 26.5-21.5 48-48 48H288c-26.5 0-48-21.5-48-48V80zM88 376v48h48V376H88zm-8-56h64c26.5 0 48 21.5 48 48v64c0 26.5-21.5 48-48 48H80c-26.5 0-48-21.5-48-48V368c0-26.5 21.5-48 48-48zm424 56v48h48V376H504zm-8-56h64c26.5 0 48 21.5 48 48v64c0 26.5-21.5 48-48 48H496c-26.5 0-48-21.5-48-48V368c0-26.5 21.5-48 48-48z"/><path class="fa-secondary" d="M240 84H121.6C111.2 62.7 89.3 48 64 48C28.7 48 0 76.7 0 112s28.7 64 64 64c25.3 0 47.2-14.7 57.6-36h66.9c-58.9 39.6-98.9 105-104 180h56.2c5.9-67 48.5-123.4 107.5-149.1C243 163.2 240 154 240 144V84zm151.8 86.9c59 25.7 101.6 82.1 107.5 149.1h56.2c-5-75-45.1-140.4-104-180h66.9c10.4 21.3 32.3 36 57.6 36c35.3 0 64-28.7 64-64s-28.7-64-64-64c-25.3 0-47.2 14.7-57.6 36H400v60c0 10-3 19.2-8.2 26.9z"/></svg>

<svg xmlns="http://www.w3.org/2000/svg" viewBox="0 0 640 512"><defs><style>.fa-secondary{opacity:.4}</style></defs><path class="fa-primary" d="M240 80C240 53.49 261.5 32 288 32H352C378.5 32 400 53.49 400 80V144C400 170.5 378.5 192 352 192H288C261.5 192 240 170.5 240 144V80zM344 136V88H296V136H344zM144 320C170.5 320 192 341.5 192 368V432C192 458.5 170.5 480 144 480H80C53.49 480 32 458.5 32 432V368C32 341.5 53.49 320 80 320H144zM88 376V424H136V376H88zM560 320C586.5 320 608 341.5 608 368V432C608 458.5 586.5 480 560 480H496C469.5 480 448 458.5 448 432V368C448 341.5 469.5 320 496 320H560zM504 376V424H552V376H504z"/><path class="fa-secondary" d="M240 144C240 153.1 243 163.2 248.2 170.9C189.2 196.6 146.6 253 140.7 320H84.53C89.56 244.1 129.6 179.6 188.5 140H121.6C111.2 161.3 89.3 176 64 176C28.65 176 0 147.3 0 112C0 76.65 28.65 48 64 48C89.3 48 111.2 62.69 121.6 84H240V144zM400 144V84H518.4C528.8 62.69 550.7 48 576 48C611.3 48 640 76.65 640 112C640 147.3 611.3 176 576 176C550.7 176 528.8 161.3 518.4 140H451.5C510.4 179.6 550.4 244.1 555.5 320H499.3C493.4 253 450.8 196.6 391.8 170.9C396.1 163.2 400 153.1 400 144H400z"/></svg>
